<?xml version="1.0" encoding="UTF-8"?>
<map version="1.10" tiledversion="1.12.2-2-geb83ddb9" orientation="orthogonal" renderorder="right-down" width="30" height="20" tilewidth="16" tileheight="16" infinite="0" nextlayerid="3" nextobjectid="10">
 <tileset firstgid="1" source="bg-1.tsx"/>
 <layer id="1" name="layer-1" width="30" height="20">
  <data encoding="csv">
0,0,0,0,0,0,0,0,0,0,0,0,0,0,0,0,0,0,0,0,0,0,0,0,0,0,0,0,0,0,
0,0,235,236,237,238,239,0,0,0,0,0,0,0,0,0,0,0,0,0,0,0,0,0,0,0,0,0,0,0,
0,0,263,264,265,266,267,0,0,0,0,0,0,0,0,0,0,0,0,0,0,0,0,0,0,0,0,0,0,0,
0,0,291,292,293,294,295,0,0,0,0,0,0,0,0,0,0,0,0,0,0,0,0,0,0,0,0,0,0,0,
0,0,319,320,321,322,323,30,31,32,33,0,0,0,0,0,0,0,0,0,0,34,35,36,37,0,0,0,0,0,
0,0,347,348,349,350,351,58,59,60,61,0,0,0,0,0,0,0,0,0,0,62,63,64,65,0,0,0,0,0,
0,0,235,236,237,238,239,86,87,88,89,0,0,0,0,0,0,0,0,0,0,90,91,92,93,0,0,0,0,0,
0,0,263,264,265,266,267,114,115,116,117,0,0,0,51,52,53,54,55,0,0,118,119,120,121,0,0,0,0,0,
0,0,291,292,293,294,295,142,143,144,145,0,0,0,79,80,81,82,83,0,0,146,147,148,149,0,0,0,0,0,
0,0,319,320,321,322,323,170,171,172,173,0,0,0,107,108,109,110,111,0,0,174,175,176,177,0,0,0,0,0,
0,0,347,348,349,350,351,198,199,200,201,0,0,0,135,136,137,138,139,0,0,202,203,204,205,0,0,0,0,0,
0,0,235,236,237,238,239,226,227,228,229,0,0,0,163,164,165,166,167,0,0,230,231,232,233,0,0,0,0,0,
0,0,263,264,265,266,267,254,255,256,257,0,0,0,191,192,193,194,195,0,0,258,259,260,261,0,0,0,0,0,
0,0,291,292,293,294,295,282,283,284,285,0,0,0,0,0,0,0,0,0,0,286,287,288,289,0,0,0,0,0,
0,0,319,320,321,322,323,310,311,312,313,0,0,0,0,0,0,0,0,0,0,314,315,316,317,0,0,0,0,0,
0,0,347,348,349,350,351,338,339,340,341,0,0,0,0,0,0,0,0,0,0,342,343,344,345,0,0,0,0,0,
0,0,0,0,0,0,0,0,0,0,0,0,0,0,0,0,0,0,0,0,0,0,0,0,0,0,0,0,0,0,
0,0,0,0,0,0,0,0,0,0,0,39,40,41,42,43,44,45,46,47,48,49,0,0,0,0,0,0,0,0,
0,0,0,0,0,0,0,0,0,0,0,67,68,69,70,71,72,73,74,75,76,77,0,0,0,0,0,0,0,0,
0,0,0,0,0,0,0,0,0,0,0,95,96,97,98,99,100,101,102,103,104,105,0,0,0,0,0,0,0,0
</data>
 </layer>
 <objectgroup id="2" name="obj-1">
  <object id="1" x="83.5" y="21.5" width="70" height="57"/>
  <object id="2" x="197" y="68">
   <polygon points="0,0 50,-33.5 85.5,8.5"/>
  </object>
  <object id="3" x="85.5" y="259.5" width="55.5" height="55.5">
   <capsule/>
  </object>
  <object id="4" x="196.5" y="216" width="44" height="45.5">
   <ellipse/>
  </object>
  <object id="5" x="86.5" y="123">
   <point/>
  </object>
  <object id="6" x="401.5" y="29">
   <point/>
  </object>
  <object id="7" x="419" y="289.5">
   <point/>
  </object>
  <object id="8" x="290.5" y="234.5">
   <point/>
  </object>
  <object id="9" x="423" y="186.5" width="42" height="15.5">
   <capsule/>
  </object>
 </objectgroup>
</map>
